app/images/curve-low.svg

<svg width="162" height="32" viewBox="0 0 162 32" fill="none" xmlns="http://www.w3.org/2000/svg">
<g clip-path="url(#clip0_2140_18019)">
<rect width="161" height="31" transform="translate(0.8125 0.0820312)" fill="white"/>
<path d="M26.0469 8.63806H26.9769V14.8581H30.4069V15.7381H26.0469V8.63806Z" fill="#F66A0A"/>
<path d="M33.4591 15.8381C33.0791 15.8381 32.7291 15.7714 32.4091 15.6381C32.0891 15.4981 31.8125 15.3114 31.5791 15.0781C31.3458 14.8447 31.1625 14.5714 31.0291 14.2581C30.9025 13.9381 30.8391 13.5981 30.8391 13.2381C30.8391 12.8781 30.9025 12.5414 31.0291 12.2281C31.1625 11.9081 31.3458 11.6314 31.5791 11.3981C31.8125 11.1647 32.0891 10.9814 32.4091 10.8481C32.7291 10.7081 33.0791 10.6381 33.4591 10.6381C33.8325 10.6381 34.1791 10.7081 34.4991 10.8481C34.8191 10.9814 35.0958 11.1647 35.3291 11.3981C35.5625 11.6314 35.7425 11.9081 35.8691 12.2281C36.0025 12.5414 36.0691 12.8781 36.0691 13.2381C36.0691 13.5981 36.0025 13.9381 35.8691 14.2581C35.7425 14.5714 35.5625 14.8447 35.3291 15.0781C35.0958 15.3114 34.8191 15.4981 34.4991 15.6381C34.1791 15.7714 33.8325 15.8381 33.4591 15.8381ZM33.4591 15.0381C33.7191 15.0381 33.9558 14.9914 34.1691 14.8981C34.3825 14.8047 34.5625 14.6781 34.7091 14.5181C34.8625 14.3514 34.9791 14.1614 35.0591 13.9481C35.1458 13.7281 35.1891 13.4914 35.1891 13.2381C35.1891 12.9914 35.1458 12.7581 35.0591 12.5381C34.9791 12.3181 34.8625 12.1281 34.7091 11.9681C34.5625 11.8014 34.3825 11.6714 34.1691 11.5781C33.9558 11.4847 33.7191 11.4381 33.4591 11.4381C33.1991 11.4381 32.9625 11.4847 32.7491 11.5781C32.5358 11.6714 32.3525 11.8014 32.1991 11.9681C32.0458 12.1281 31.9258 12.3181 31.8391 12.5381C31.7591 12.7581 31.7191 12.9914 31.7191 13.2381C31.7191 13.4914 31.7591 13.7281 31.8391 13.9481C31.9258 14.1614 32.0458 14.3514 32.1991 14.5181C32.3525 14.6781 32.5358 14.8047 32.7491 14.8981C32.9625 14.9914 33.1991 15.0381 33.4591 15.0381Z" fill="#F66A0A"/>
<path d="M40.2841 12.1481L39.0541 15.7381H38.2941L36.5941 10.7381H37.4941L38.7041 14.3881L39.9541 10.7381H40.6141L41.8641 14.3881L43.0741 10.7381H43.9841L42.2841 15.7381H41.5241L40.2841 12.1481Z" fill="#F66A0A"/>
<path opacity="0.3" d="M45.774 22.738C35.0101 30.158 26.3574 30.738 26.3574 30.738H136.608C136.608 30.738 127.955 30.158 117.191 22.738C106.427 15.3181 93.8273 0.738037 81.4825 0.738037C69.1377 0.738037 56.5378 15.3181 45.774 22.738Z" fill="#037DD6"/>
<mask id="mask0_2140_18019" style="mask-type:alpha" maskUnits="userSpaceOnUse" x="26" y="0" width="111" height="31">
<path d="M45.774 22.6052C35.0101 30.0252 26.3574 30.6052 26.3574 30.6052H136.608C136.608 30.6052 127.955 30.0252 117.191 22.6052C106.427 15.1853 93.8273 0.605225 81.4825 0.605225C69.1377 0.605225 56.5378 15.1853 45.774 22.6052Z" fill="#EAF6FF"/>
</mask>
<g mask="url(#mask0_2140_18019)">
<rect x="24.6074" y="16.738" width="20.7061" height="17.3027" fill="#F66A0A" stroke="white" stroke-width="2"/>
</g>
</g>
<defs>
<clipPath id="clip0_2140_18019">
<rect width="161" height="31" fill="white" transform="translate(0.8125 0.0820312)"/>
</clipPath>
</defs>
</svg>

<svg width="162" height="32" fill="none" xmlns="http://www.w3.org/2000/svg"><g clip-path="url(#a)"><path fill="#fff" d="M.813.082h161v31h-161z"/><path d="M26.047 8.638h.93v6.22h3.43v.88h-4.36v-7.1ZM33.46 15.838c-.38 0-.73-.067-1.05-.2a2.573 2.573 0 0 1-1.38-1.38c-.127-.32-.19-.66-.19-1.02s.063-.697.19-1.01c.133-.32.316-.597.55-.83.233-.233.51-.417.83-.55.32-.14.67-.21 1.05-.21.373 0 .72.07 1.04.21.32.133.596.317.83.55.233.233.413.51.54.83.133.313.2.65.2 1.01s-.068.7-.2 1.02a2.438 2.438 0 0 1-.54.82c-.234.233-.51.42-.83.56-.32.133-.667.2-1.04.2Zm0-.8c.26 0 .496-.047.71-.14.212-.093.392-.22.54-.38.152-.167.27-.357.35-.57.086-.22.13-.457.13-.71 0-.247-.044-.48-.13-.7-.08-.22-.198-.41-.35-.57a1.518 1.518 0 0 0-.54-.39 1.752 1.752 0 0 0-.71-.14c-.26 0-.498.047-.71.14a1.62 1.62 0 0 0-.55.39 1.73 1.73 0 0 0-.36.57c-.08.22-.12.453-.12.7 0 .253.04.49.12.71.086.213.206.403.36.57.152.16.336.287.55.38.212.093.45.14.71.14ZM40.284 12.148l-1.23 3.59h-.76l-1.7-5h.9l1.21 3.65 1.25-3.65h.66l1.25 3.65 1.21-3.65h.91l-1.7 5h-.76l-1.24-3.59Z" fill="#F66A0A"/><path opacity=".3" d="M45.774 22.738c-10.764 7.42-19.417 8-19.417 8h110.251s-8.653-.58-19.417-8c-10.764-7.42-23.364-22-35.709-22-12.344 0-24.944 14.58-35.708 22Z" fill="#037DD6"/><mask id="b" style="mask-type:alpha" maskUnits="userSpaceOnUse" x="26" y="0" width="111" height="31"><path d="M45.774 22.605c-10.764 7.42-19.417 8-19.417 8h110.251s-8.653-.58-19.417-8c-10.764-7.42-23.364-22-35.709-22-12.344 0-24.944 14.58-35.708 22Z" fill="#EAF6FF"/></mask><g mask="url(#b)"><path fill="#F66A0A" stroke="#fff" stroke-width="2" d="M24.607 16.738h20.706v17.303H24.607z"/></g></g><defs><clipPath id="a"><path fill="#fff" transform="translate(.813 .082)" d="M0 0h161v31H0z"/></clipPath></defs></svg>
